X: 12883
T: Fest Noz
R: waltz
M: 3/4
K: Bminor
~f3e ^de|~f3e fg|~f3e ^de|fg ag fe|
~f3e ^de|~f3e fg|~f3e ^de|fg ag fe|
fg fd B2|fg fe c2|fg fd B2|AB cd B2|
fg fd B2|fg fe c2|fg fd B2|d2 c2 A2||

